X:2719
T:Cassano,The. JC.032
M:6/8
L:1/8
Q:100
S:John Clare,Poet,Helpston. (1793-1864)
R:Quadrille
O:England
A:Northamptonshire
N:
Z:P Headford
K:G
"Key D in MS"B2AB2A|G2G GAB|c2Bc2B|A2AA2B|
c2c cde|edB Bcd|!dcBA2B|G2GG3:|
|:d2d dBG|e2ee3|c2c cAF|d2dd3|!
G2DB2G|dB2fd2|edc BAG|A2DD3|
B2AB2A|G2G GAB|!c2Bc2B|A2AA2B|
c2c cde|edc Bcd|dcB A2B|G2GG3:|]


